cps(60/60)

d2 $ every 3 rev $ sound "sn:3"

d4 $ sound "[metal/3], [arpy/2 bd*2 arpy]"

d3 $ sound "[bd sn metal can] [arpy], [bd can*3], [bd bd*3 sn? cp]"
# pan "[0.5, -0.7 0.1],- 0.5, 1"

d1 $ iter 4 $ sound "[sn,sn] cp , arpy?, [bd*4 hh cp sn]"
# gain "1 0.8 0.5 0.7"

d5 $ every 3 rev $ sound "[sn cp hh hh], bd cp bd (5,7)"

d6 $ sound "[ metal hh hh*2], [sn sn cp*2] sn cp cp (7,12)"
